dist/projects/justice/icons/menu-profile.svg

<svg width="19" height="20" viewBox="0 0 19 20" fill="none" xmlns="http://www.w3.org/2000/svg">
<path d="M13.1847 12.6891C13.7648 12.3844 14.4287 12.2109 15.1357 12.2109H15.1381C15.21 12.2109 15.2436 12.1266 15.1909 12.0797C14.4555 11.4344 13.6156 10.9132 12.7054 10.5375C12.6958 10.5328 12.6862 10.5305 12.6766 10.5258C14.165 9.46875 15.1333 7.75078 15.1333 5.8125C15.1333 2.60156 12.4777 0 9.20126 0C5.92484 0 3.27158 2.60156 3.27158 5.8125C3.27158 7.75078 4.23989 9.46875 5.7307 10.5258C5.72111 10.5305 5.71152 10.5328 5.70194 10.5375C4.63057 10.9805 3.66945 11.6156 2.84256 12.4266C2.02044 13.229 1.36592 14.1803 0.915533 15.2273C0.472397 16.2526 0.233241 17.3512 0.210875 18.4641C0.210236 18.4891 0.214723 18.514 0.224072 18.5373C0.233421 18.5605 0.247443 18.5818 0.265312 18.5997C0.283182 18.6176 0.304536 18.6318 0.328117 18.6415C0.351699 18.6513 0.37703 18.6563 0.402619 18.6562H1.8383C1.94136 18.6562 2.02765 18.5742 2.03004 18.4734C2.07798 16.6641 2.81859 14.9695 4.12964 13.6852C5.48383 12.3563 7.28622 11.625 9.20366 11.625C10.5626 11.625 11.8665 11.993 12.9906 12.682C13.0195 12.6998 13.0526 12.7098 13.0867 12.711C13.1208 12.7122 13.1546 12.7047 13.1847 12.6891ZM9.20366 9.84375C8.10592 9.84375 7.0729 9.42422 6.29394 8.6625C5.91068 8.28869 5.60685 7.84443 5.39994 7.35529C5.19303 6.86616 5.08713 6.34183 5.08836 5.8125C5.08836 4.73672 5.51738 3.72422 6.29394 2.9625C7.07051 2.20078 8.10353 1.78125 9.20366 1.78125C10.3038 1.78125 11.3344 2.20078 12.1134 2.9625C12.4966 3.33631 12.8005 3.78057 13.0074 4.26971C13.2143 4.75884 13.3202 5.28317 13.319 5.8125C13.319 6.88828 12.8899 7.90078 12.1134 8.6625C11.3344 9.42422 10.3014 9.84375 9.20366 9.84375ZM18.0191 15.4219H16.0058V13.4531C16.0058 13.35 15.9195 13.2656 15.814 13.2656H14.4718C14.3664 13.2656 14.2801 13.35 14.2801 13.4531V15.4219H12.2668C12.1613 15.4219 12.075 15.5063 12.075 15.6094V16.9219C12.075 17.025 12.1613 17.1094 12.2668 17.1094H14.2801V19.0781C14.2801 19.1812 14.3664 19.2656 14.4718 19.2656H15.814C15.9195 19.2656 16.0058 19.1812 16.0058 19.0781V17.1094H18.0191C18.1245 17.1094 18.2108 17.025 18.2108 16.9219V15.6094C18.2108 15.5063 18.1245 15.4219 18.0191 15.4219Z" fill="white"/>
</svg>

<svg width="19" height="20" fill="none" xmlns="http://www.w3.org/2000/svg"><path d="M13.185 12.69a4.184 4.184 0 011.95-.48h.003c.072 0 .106-.083.053-.13a8.938 8.938 0 00-2.486-1.543l-.028-.011c1.488-1.057 2.456-2.775 2.456-4.713C15.133 2.602 12.478 0 9.201 0c-3.276 0-5.93 2.602-5.93 5.813 0 1.938.969 3.656 2.46 4.713-.01.005-.02.007-.03.011a8.944 8.944 0 00-2.858 1.89 8.743 8.743 0 00-1.927 2.8 8.592 8.592 0 00-.705 3.237.184.184 0 00.054.136.192.192 0 00.138.056h1.435a.19.19 0 00.192-.183 6.919 6.919 0 012.1-4.788 7.197 7.197 0 015.074-2.06c1.359 0 2.662.368 3.787 1.057a.196.196 0 00.194.007zM9.204 9.843a4.14 4.14 0 01-2.91-1.181A4.008 4.008 0 015.4 7.354a3.968 3.968 0 01.894-4.393 4.128 4.128 0 012.91-1.18c1.1 0 2.13.419 2.91 1.18.383.374.686.819.893 1.308a3.968 3.968 0 01-.894 4.393 4.136 4.136 0 01-2.91 1.18zm8.815 5.578h-2.013v-1.969a.19.19 0 00-.192-.187h-1.342a.19.19 0 00-.192.187v1.969h-2.013a.19.19 0 00-.192.187v1.313a.19.19 0 00.192.187h2.013v1.97a.19.19 0 00.192.187h1.342a.19.19 0 00.192-.188V17.11h2.013a.19.19 0 00.192-.187V15.61a.19.19 0 00-.192-.187z" fill="#fff"/></svg>
